components/brave_wallet_ui/page/screens/swap/assets/lp-icons/mercurial.svg

<svg width="32" height="32" viewBox="0 0 32 32" fill="none" xmlns="http://www.w3.org/2000/svg">
<circle cx="16" cy="16" r="16" fill="#23C1AA"/>
<path d="M14.9089 18.2062L5.68216 12.6801C5.24832 12.4201 4.86354 12.05 4.55282 11.5941C4.24211 11.1381 4.01241 10.6063 3.87865 10.0333L3.8125 9.75L3.81914 9.75488L13.0164 15.183C13.5008 15.4689 13.9244 15.8913 14.253 16.4163C14.5817 16.9413 14.8064 17.5543 14.909 18.2061L14.9089 18.2062Z" fill="white"/>
<path d="M13.3398 27.4772L8.40767 24.5989C8.00471 24.3638 7.64662 24.0257 7.357 23.6068C7.06738 23.188 6.85282 22.698 6.72746 22.1691C6.69542 22.0339 6.66296 21.8969 6.63008 21.7581L6.66435 21.7776V21.7793L13.6097 25.8317C13.7284 25.9009 13.8602 25.9281 13.9905 25.9101C14.1209 25.8922 14.2446 25.8298 14.348 25.73C14.4515 25.6303 14.5305 25.4969 14.5763 25.3449C14.6221 25.1929 14.6329 25.0281 14.6076 24.8689C14.5135 24.2785 14.3092 23.7234 14.0109 23.248C13.7126 22.7726 13.3286 22.3901 12.8896 22.131L6.9997 18.6542C6.60332 18.42 6.25081 18.0861 5.96471 17.6737C5.6786 17.2614 5.46521 16.7797 5.33818 16.2595C5.29694 16.0907 5.25896 15.9336 5.22803 15.8027L5.25437 15.8174L13.1659 20.4879C13.8806 20.9099 14.5058 21.5327 14.9915 22.3066C15.4772 23.0806 15.81 23.9843 15.9633 24.9456C16.03 25.3641 16.0016 25.7974 15.8812 26.1972C15.7607 26.597 15.553 26.9476 15.2811 27.21C15.0091 27.4723 14.6837 27.6363 14.341 27.6834C13.9983 27.7306 13.6517 27.6592 13.3398 27.4772Z" fill="white"/>
<path d="M17.0913 18.2062L26.3181 12.6801C26.7519 12.4201 27.1367 12.05 27.4474 11.5941C27.7582 11.1381 27.9879 10.6063 28.1216 10.0333C28.1444 9.93584 28.1664 9.8414 28.1878 9.75L28.1811 9.75488L18.9839 15.183C18.4994 15.4689 18.0759 15.8913 17.7472 16.4163C17.4185 16.9413 17.1939 17.5543 17.0913 18.2061V18.2062Z" fill="white"/>
<path d="M18.6602 27.4772L23.5923 24.5989C23.9953 24.3638 24.3534 24.0257 24.643 23.6068C24.9326 23.188 25.1472 22.698 25.2726 22.1691C25.3046 22.0339 25.3371 21.8969 25.3699 21.7581L25.3357 21.7776V21.7793L18.3903 25.8317C18.2717 25.9009 18.1398 25.9281 18.0095 25.9101C17.8791 25.8922 17.7554 25.8298 17.652 25.73C17.5485 25.6303 17.4695 25.4969 17.4237 25.3449C17.3779 25.1929 17.3671 25.0281 17.3924 24.8689C17.4865 24.2784 17.6908 23.7234 17.9891 23.248C18.2874 22.7726 18.6714 22.3901 19.1104 22.1309L25.0003 18.6542C25.3967 18.42 25.7492 18.0861 26.0353 17.6737C26.3214 17.2614 26.5348 16.7797 26.6618 16.2595C26.7031 16.0907 26.741 15.9336 26.772 15.8027L26.7456 15.8174L18.8341 20.4879C18.1193 20.9099 17.4942 21.5327 17.0085 22.3067C16.5228 23.0806 16.19 23.9843 16.0367 24.9456C15.97 25.3641 15.9984 25.7974 16.1188 26.1972C16.2393 26.597 16.447 26.9476 16.7189 27.21C16.9909 27.4724 17.3163 27.6363 17.659 27.6835C18.0018 27.7306 18.3484 27.6592 18.6602 27.4772Z" fill="white"/>
</svg>

<svg xmlns="http://www.w3.org/2000/svg" width="32" height="32" fill="none"><circle cx="16" cy="16" r="16" fill="#23C1AA"/><path fill="#fff" d="M14.909 18.206 5.682 12.68a3.653 3.653 0 0 1-1.13-1.086 4.652 4.652 0 0 1-.673-1.56l-.067-.284.007.005 9.197 5.428a3.69 3.69 0 0 1 1.237 1.233 4.78 4.78 0 0 1 .656 1.79Zm-1.569 9.271L8.408 24.6a3.33 3.33 0 0 1-1.051-.992 4.254 4.254 0 0 1-.63-1.438l-.097-.41.034.019v.001l6.946 4.053a.59.59 0 0 0 .38.078.642.642 0 0 0 .358-.18.89.89 0 0 0 .228-.385c.046-.152.057-.317.032-.476a4.34 4.34 0 0 0-.597-1.621 3.352 3.352 0 0 0-1.121-1.117L7 18.654a3.339 3.339 0 0 1-1.035-.98 4.25 4.25 0 0 1-.627-1.415l-.11-.456.026.014 7.912 4.67c.715.423 1.34 1.046 1.825 1.82.486.774.819 1.677.972 2.639a2.81 2.81 0 0 1-.082 1.251c-.12.4-.328.75-.6 1.013a1.69 1.69 0 0 1-.94.473 1.553 1.553 0 0 1-1.001-.206Zm3.751-9.271 9.227-5.526c.434-.26.819-.63 1.13-1.086.31-.456.54-.988.674-1.56l.066-.284-.007.005-9.197 5.428a3.69 3.69 0 0 0-1.237 1.233 4.78 4.78 0 0 0-.656 1.79Z"/><path fill="#fff" d="m18.66 27.477 4.932-2.878a3.33 3.33 0 0 0 1.051-.992c.29-.419.504-.909.63-1.438l.097-.41-.034.019v.001l-6.946 4.053a.59.59 0 0 1-.38.078.642.642 0 0 1-.358-.18.89.89 0 0 1-.228-.385 1.075 1.075 0 0 1-.032-.476 4.34 4.34 0 0 1 .597-1.621 3.353 3.353 0 0 1 1.121-1.117L25 18.654a3.338 3.338 0 0 0 1.035-.98c.286-.413.5-.894.627-1.415l.11-.456-.026.014-7.912 4.67c-.715.423-1.34 1.046-1.825 1.82a7.067 7.067 0 0 0-.972 2.639 2.81 2.81 0 0 0 .082 1.251c.12.4.328.75.6 1.013.272.262.597.426.94.473.343.048.69-.024 1.001-.206Z"/></svg>
